docs/images/logo-text.svg

<svg width="91" height="45" viewBox="0 0 91 45" fill="none" xmlns="http://www.w3.org/2000/svg">
<path d="M30.8239 5.42498L25.2109 6.87832V18.9686H30.448L30.8239 5.42498Z" fill="white"/>
<path d="M27.2035 4.74843C30.0475 4.74843 30.7992 3.29508 30.7992 1.16518V0H28.6568C26.7399 0 25.0234 0.63897 25.0234 2.70623C25.0234 3.48302 25.6499 4.7359 27.216 4.7359L27.2035 4.74843Z" fill="white"/>
<path d="M33.2549 1.44082V16.0244C33.2549 16.726 33.4178 17.2647 33.756 17.6406C34.0943 18.0165 34.5829 18.3172 35.247 18.5552C36.0238 18.8308 38.3165 18.9812 40.697 18.9812L40.9601 16.1497C40.9601 16.1497 38.6047 15.9492 38.5421 15.9367L38.8678 0L33.2549 1.44082Z" fill="white"/>
<path d="M47.6758 13.1052H48.8159L50.996 18.668H56.7467L52.6498 11.3261L56.6089 4.63567H50.8456L48.8159 9.25881H47.7761L47.9264 0L42.3135 1.44082V18.668H47.538L47.6758 13.1052Z" fill="white"/>
<path d="M5.99193 8.14374H6.1548L8.17194 18.668H13.7222L15.7519 8.14374H15.9148L17.2303 18.668H23.1063L20.3374 0L13.0206 1.44082L11.7552 8.49455H11.4294L10.139 0L2.90983 1.44082L0.166016 18.668H4.66387L5.99193 8.14374Z" fill="white"/>
<path d="M71.8306 26.2103L66.2177 27.6512V30.608H64.8145V33.5272H66.2177V41.5707C66.2177 42.2848 66.3931 42.8361 66.7314 43.1994C67.0696 43.5628 67.5708 43.8635 68.2223 44.1015C68.9991 44.3772 71.3796 44.5275 73.9354 44.5275L74.1986 41.721C74.1986 41.721 71.7178 41.5206 71.5299 41.5081L71.7053 33.5272H74.1986V30.608H71.7429L71.8306 26.1978V26.2103Z" fill="white"/>
<path d="M62.3971 25.4711L56.7842 26.9119V41.4955C56.7842 42.1971 56.9471 42.7359 57.2853 43.1117C57.6236 43.4876 58.1122 43.7883 58.7763 44.0263C59.5531 44.302 61.8458 44.4523 64.2263 44.4523L64.4894 41.6208C64.4894 41.6208 62.134 41.4203 62.0839 41.4078L62.4096 25.4711H62.3971Z" fill="white"/>
<path d="M88.5443 31.6103C88.1935 31.2219 87.7801 30.9462 87.304 30.7834C86.8279 30.608 86.3267 30.5203 85.788 30.5203C83.5704 30.5203 81.2651 31.8107 81.2651 31.8107L81.3904 25.5588L76.1533 26.9997V44.2268H81.0145L81.2275 34.5044C81.2275 34.5044 82.5556 33.9281 83.3574 33.9281C84.6604 33.9281 84.9235 34.9053 84.9235 36.8097V44.2268H89.6845V35.2562C89.6845 34.4167 89.5842 33.6901 89.3838 33.0887C89.1833 32.4873 88.9077 31.9987 88.5569 31.6103H88.5443Z" fill="white"/>
<path d="M47.1231 29.5054C44.6799 29.5054 42.5124 29.7936 40.6457 30.3699L41.3222 33.9156C42.8507 33.4019 44.6674 33.1388 46.7723 33.1388C46.9727 33.1388 47.1982 33.1388 47.4363 33.1638C47.6743 33.1764 47.95 33.2014 48.2381 33.214V34.7049H47.1105C42.0238 34.7049 39.4805 36.3838 39.4805 39.754C39.4805 40.606 39.5932 41.3326 39.8313 41.934C40.0693 42.5229 40.4076 42.999 40.8336 43.3623C41.2721 43.7257 41.7983 43.9762 42.4373 44.1516C43.0762 44.3145 43.7779 44.4022 44.5797 44.4022C45.0057 44.4022 45.4317 44.3521 45.8952 44.2644C46.3463 44.1767 46.7973 44.0389 47.2358 43.8635C47.6743 43.6881 48.0753 43.4876 48.4636 43.237C48.8395 42.9865 49.1778 42.7108 49.4534 42.3976L51.0446 43.9888H53.851V34.1661C53.851 31.0715 51.6084 29.5305 47.1105 29.5305L47.1231 29.5054ZM48.2507 38.9021C48.2507 40.6185 47.1481 41.6709 45.7198 41.6709C44.2915 41.6709 43.5774 40.7939 43.5774 40.1549C43.5774 38.4886 44.9556 37.9624 46.5217 37.9624H48.2507V38.9021Z" fill="white"/>
<path d="M90.7115 22.9278C90.5236 22.4642 90.248 22.0633 89.8971 21.7125C89.5463 21.3617 89.1454 21.0986 88.6818 20.8981C88.2183 20.7102 87.7171 20.61 87.1659 20.61C86.6146 20.61 86.1134 20.7102 85.6499 20.8981C85.1863 21.0861 84.7854 21.3617 84.4346 21.7125C84.0838 22.0633 83.8207 22.4642 83.6202 22.9278C83.4323 23.3914 83.332 23.8925 83.332 24.4438C83.332 24.9951 83.4323 25.4962 83.6202 25.9598C83.8081 26.4233 84.0838 26.8243 84.4346 27.1751C84.7854 27.5259 85.1863 27.789 85.6499 27.9894C86.1134 28.1774 86.6146 28.2776 87.1659 28.2776C87.7171 28.2776 88.2183 28.1774 88.6818 27.9894C89.1454 27.8015 89.5463 27.5259 89.8971 27.1751C90.248 26.8243 90.5111 26.4233 90.7115 25.9598C90.8994 25.4962 90.9997 24.9951 90.9997 24.4438C90.9997 23.8925 90.8994 23.3914 90.7115 22.9278ZM90.1227 25.6716C89.9723 26.06 89.7719 26.4108 89.4962 26.7115C89.2206 27.0122 88.8948 27.2502 88.4939 27.4256C88.093 27.601 87.667 27.6888 87.1784 27.6888C86.5269 27.6888 85.9631 27.5384 85.487 27.2377C85.0109 26.937 84.6476 26.5361 84.397 26.0475C84.1464 25.5588 84.0086 25.0201 84.0086 24.4563C84.0086 24.0303 84.0838 23.6169 84.2216 23.2285C84.3719 22.8401 84.5724 22.4893 84.848 22.1886C85.1237 21.8879 85.4619 21.6499 85.8503 21.4744C86.2387 21.299 86.6772 21.2113 87.1659 21.2113C87.8174 21.2113 88.3812 21.3617 88.8573 21.6624C89.3333 21.9631 89.6967 22.364 89.9473 22.8526C90.1978 23.3412 90.3357 23.88 90.3357 24.4438C90.3357 24.8698 90.2605 25.2832 90.1227 25.6716Z" fill="white"/>
<path d="M87.2784 22.2888H86.0381V26.5862H86.7773V24.8071C86.9903 24.8071 87.1532 24.8071 87.291 24.8447C87.4163 24.8698 87.5165 24.9199 87.5791 25.0076C87.6418 25.0953 87.6668 25.2206 87.6668 25.396V26.5987H88.381V25.3083C88.381 25.1078 88.3434 24.9324 88.2557 24.7946C88.168 24.6568 88.0176 24.5691 87.8046 24.544C88.0552 24.4814 88.2181 24.3811 88.3058 24.2183C88.3935 24.0679 88.4311 23.8675 88.4311 23.6169V23.5166C88.4311 23.0781 88.3434 22.7649 88.168 22.5895C87.9926 22.4016 87.6919 22.3139 87.2784 22.3139V22.2888ZM87.6292 24.093C87.5415 24.2183 87.3912 24.2809 87.1782 24.2809H86.7898V22.8401C87.1907 22.8401 87.4538 22.8902 87.5666 22.9779C87.6919 23.0656 87.742 23.2661 87.742 23.5542C87.742 23.7923 87.7044 23.9677 87.6167 24.093H87.6292Z" fill="white"/>
<path d="M17.2679 37.1981H17.105L15.1004 25.5463L9.55011 26.9996L7.50791 37.1981H7.34504L6.04204 25.5463L0.166016 26.9996L2.92236 44.2268H10.2517L11.5171 36.8473H11.8429L13.1334 44.2268H20.3625L23.0938 25.5463L18.6085 26.9996L17.2679 37.1981Z" fill="white"/>
<path d="M36.8881 30.821C36.3494 30.4451 35.6478 30.1695 34.7708 30.0066C33.8937 29.8437 32.8037 29.756 31.5007 29.756C28.2182 29.756 24.0586 31.7732 24.0586 37.1981C24.0586 39.7039 24.6474 41.5832 25.8126 42.7985C26.9778 44.0264 28.8822 44.6403 31.5007 44.6403C33.5429 44.6403 35.6227 44.3646 37.7276 43.8008L37.0761 40.1675C35.297 40.7313 33.5304 41.0069 31.7889 41.0069C31.5133 41.0069 31.2251 41.0069 30.9495 40.9818C30.6738 40.9693 30.3857 40.9443 30.11 40.9067V39.4408C31.6887 39.4408 33.0042 39.3531 34.0691 39.1777C35.1341 39.0023 35.986 38.7267 36.6125 38.3508C37.2515 37.9749 37.7025 37.4988 37.9781 36.91C38.2538 36.3211 38.3916 35.632 38.3916 34.8177C38.3916 33.8404 38.2788 33.026 38.0533 32.3745C37.8278 31.723 37.4394 31.2094 36.9007 30.8335L36.8881 30.821ZM31.8515 36.2459H30.1226V35.3063C30.1226 33.5898 31.2251 32.5374 32.6534 32.5374C34.0817 32.5374 34.7958 33.4144 34.7958 34.0534C34.7958 35.7197 33.4176 36.2459 31.8641 36.2459H31.8515Z" fill="white"/>
</svg>

<svg xmlns="http://www.w3.org/2000/svg" width="91" height="45" fill="none"><path fill="#fff" d="M30.824 5.425 25.21 6.878v12.09h5.237zm-3.62-.677c2.843 0 3.595-1.453 3.595-3.583V0h-2.142c-1.917 0-3.634.639-3.634 2.706 0 .777.627 2.03 2.193 2.03zm6.051-3.308v14.584c0 .702.163 1.24.501 1.617.338.376.827.676 1.491.914.777.276 3.07.426 5.45.426l.263-2.831s-2.355-.2-2.418-.213L38.868 0zm14.421 11.665h1.14l2.18 5.563h5.75l-4.096-7.342 3.959-6.69h-5.763l-2.03 4.623h-1.04L47.926 0l-5.613 1.44v17.228h5.225zM5.992 8.144h.163l2.017 10.524h5.55l2.03-10.524h.163l1.315 10.524h5.876L20.337 0l-7.316 1.44-1.266 7.055h-.326L10.14 0 2.91 1.44.167 18.669h4.498zM71.83 26.21l-5.612 1.441v2.957h-1.404v2.92h1.404v8.043c0 .714.175 1.265.513 1.628.339.364.84.665 1.491.903.777.275 3.158.426 5.713.426l.264-2.807s-2.481-.2-2.67-.213l.176-7.98H74.2v-2.92h-2.456l.088-4.41zm-9.433-.739-5.613 1.44v14.584c0 .702.163 1.24.501 1.617.339.376.827.676 1.491.914.777.276 3.07.426 5.45.426l.263-2.831s-2.355-.2-2.405-.213l.326-15.937zm26.147 6.139a2.9 2.9 0 0 0-1.24-.827 4.3 4.3 0 0 0-1.516-.263c-2.218 0-4.523 1.29-4.523 1.29l.125-6.251-5.237 1.44v17.228h4.861l.214-9.723s1.328-.576 2.13-.576c1.302 0 1.566.977 1.566 2.882v7.417h4.76v-8.97c0-.84-.1-1.567-.3-2.168s-.476-1.09-.827-1.479zm-41.421-2.105c-2.443 0-4.61.289-6.477.865l.676 3.546c1.529-.514 3.345-.777 5.45-.777.2 0 .426 0 .664.025.238.012.514.037.802.05v1.49h-1.127c-5.087 0-7.63 1.68-7.63 5.05 0 .852.112 1.579.35 2.18a3.6 3.6 0 0 0 1.003 1.428c.438.364.964.614 1.603.79.64.163 1.34.25 2.143.25.426 0 .852-.05 1.315-.138a7.5 7.5 0 0 0 1.34-.4 7 7 0 0 0 1.229-.627 5 5 0 0 0 .99-.84l1.59 1.592h2.807v-9.823c0-3.094-2.243-4.635-6.74-4.635zm1.128 9.397c0 1.716-1.103 2.769-2.531 2.769s-2.143-.877-2.143-1.516c0-1.666 1.379-2.193 2.945-2.193h1.729zm42.461-15.974a3.6 3.6 0 0 0-.815-1.216 3.8 3.8 0 0 0-1.215-.814 4 4 0 0 0-1.516-.288c-.551 0-1.053.1-1.516.288a3.6 3.6 0 0 0-1.215.814 3.8 3.8 0 0 0-.815 1.216 4 4 0 0 0-.288 1.516c0 .551.1 1.052.288 1.516s.464.864.815 1.215c.35.35.751.614 1.215.814.463.188.965.289 1.516.289s1.052-.1 1.516-.289a3.6 3.6 0 0 0 1.215-.814 3.8 3.8 0 0 0 .814-1.215c.188-.464.289-.965.289-1.516 0-.552-.1-1.053-.288-1.516m-.59 2.744c-.15.388-.35.739-.626 1.04a2.9 2.9 0 0 1-1.002.714 3.2 3.2 0 0 1-1.316.263q-.977 0-1.691-.451a3 3 0 0 1-1.09-1.19 3.5 3.5 0 0 1-.388-1.592c0-.426.075-.84.213-1.227.15-.389.35-.74.626-1.04s.614-.54 1.002-.715a3.2 3.2 0 0 1 1.316-.263q.977 0 1.691.451c.476.301.84.702 1.09 1.19.25.49.389 1.028.389 1.592 0 .426-.076.84-.213 1.228"/><path fill="#fff" d="M87.278 22.289h-1.24v4.297h.74v-1.779c.212 0 .375 0 .513.038a.44.44 0 0 1 .288.163c.063.087.088.213.088.388v1.203h.714v-1.29a.95.95 0 0 0-.125-.514c-.088-.138-.238-.226-.451-.251.25-.063.413-.163.5-.326.088-.15.126-.35.126-.601v-.1c0-.439-.088-.752-.263-.927-.175-.188-.476-.276-.89-.276zm.351 1.804q-.132.188-.45.188h-.39v-1.44c.402 0 .665.05.778.137.125.088.175.288.175.576 0 .238-.038.414-.125.539zM17.268 37.198h-.163L15.1 25.546 9.55 27 7.508 37.198h-.163L6.042 25.546.166 27l2.756 17.227h7.33l1.265-7.38h.326l1.29 7.38h7.23l2.73-18.68L18.609 27zm19.62-6.377c-.539-.376-1.24-.652-2.117-.814-.877-.163-1.967-.251-3.27-.251-3.283 0-7.442 2.017-7.442 7.442 0 2.506.588 4.385 1.754 5.6 1.165 1.228 3.07 1.842 5.688 1.842a24 24 0 0 0 6.227-.84l-.652-3.633c-1.779.564-3.546.84-5.287.84-.276 0-.564 0-.84-.025a10 10 0 0 1-.839-.075V39.44c1.579 0 2.894-.088 3.96-.263 1.064-.176 1.916-.451 2.542-.827.64-.376 1.09-.852 1.366-1.441s.414-1.278.414-2.092q0-1.467-.339-2.443a3.05 3.05 0 0 0-1.152-1.541zm-5.036 5.425h-1.73v-.94c0-1.716 1.103-2.769 2.531-2.769s2.143.877 2.143 1.516c0 1.667-1.378 2.193-2.932 2.193z"/></svg>
